!!!ONB: MCCC : ILB0323_02 : Extracted Monophonic Melody
!!!COM: Beethoven, Ludwig van
!!!OPR: Violin Sonata No.2 in A major
!!!OMV: 2
!!!SCT: Op.12 No.2
!!!ODT: 1797///
**kern
*staff1
*clefG2
*k[]
*C:
*M2/4
=9
4.ccc
16bb
16aa
=10
16.gg#
32aa
16.bb
32aa
16.ccc
32bb
16.ddd
32ccc
=11
4eee
8.fff
16ddd
=12
4bb
4r
=13
4.ddd
16ccc
16bb
=14
8aa
8gg#
8aa
8bb
=15
4ee
4gg#
=16
4aa
4r
=17
2r
=18
2r
=19
2r
=20
2r
=21
2r
=22
2r
=23
2r
=24
2r
=25
4ccc
8ccc
8ccc
=26
8.eee
16ddd
4ccc
=27
16.eee
32ddd
8ccc
16.eee
32ddd
8ccc
=28
8.eee
16ddd
4ccc
=29
4bb
8bb
8bb
=30
8.ccc
32bb
64r
64bb
16aa
16gg#
16aa
16bb
=31
4ee
4gg#
=32
4aa
4r
=33
16f
16g
16a
16b-
16b
16cc
16dd
16cc
=34
4cc
4f
=35
16e
16f
16g
16a
16b-
16b
16dd
16cc
=36
4cc
4e
=37
16f
16a
16b-
16b
16cc
16cc#
16dd
16ee
=38
2ff[
=39
8ff]
16ee
16dd
16dd
16cc
16cc
16b
=40
4dd
4cc
=41
2r
=42
16f
16g
16a
16b-
16b
16cc
16dd
16cc
=43
4cc
4e[
=44
16e]
16f
16g
16a
16b-
16b
16dd
16cc
=45
4cc
4f[
=46
16f]
16a
16b-
16b
16cc
16cc#
16dd
16ee
=47
4ff
4b[
=48
16b]
32cc
32b
16a
16b
16cc
16cc
16a
16g
=49
4f#
16r
16ee-
16dd
16cc
=50
4b-
16r
16b-
16g
16f
=51
4e
16r
16dd
16cc
16b-
=52
4a
16r
16a
16b-
16b
=53
16cc
16cc#
16dd
16ee-
16ee
16ff
16gg
16ff
=54
2ff[
=55
16ff]
16ee
16dd
16cc
16b
16cc
16b-
16g
=56
4g
4f
=57
16r
16cc
16a
16g
4f#
=58
16r
16ee-
16dd
16cc
4b-
=59
16r
16b-
16g
16f
4e
=60
16r
16dd
16cc
16b-
4a
=61
2a
=62
16b-
16cc
16dd
16ee-
16ee
16ff
16dd
16b-
=63
16a
16cc
16a
16f
16e
16g
16e
16B-[
=64
16B-]
32c
32B-
16A
16B-
4A
=65
2r
=66
[2aa
=67
8aa]
8a
8a
8a
=68
4g#
4r
=69
2r
=70
2r
=71
16r
16aa
16bb
16ccc
16ddd
16eee
16fff
16fff
=72
4.fff
8ddd
=73
4bb
4r
=74
2r
=75
4.eee
8gg#
=76
16aa
16a
16cc
16ee
16aa
16gg#
16bb
16aa
=77
4.ccc
16bb
16aa
=78
16.gg#
32aa
16.bb
32aa
16.ccc
32bb
16.ddd
32ccc
=79
4eee
8.fff
16ddd
=80
4bb
4r
=81
4.ddd
16ccc
16bb
=82
8aa
8gg#
8aa
8bb
=83
4ee
4gg#
=84
4aa
4r
=85
2r
=86
8r
8g
4gg[
=87
16gg]
16g
8gg[
16gg]
16g
8gg[
=88
16gg]
16g
4.gg
=89
2gg#
=90
[4aa
16aa]
16gg#
16aa
16bb
=91
4ee
4gg#
=92
16aa
16cc
16dd
16ee
16ff
16gg
16aa
16bb
=93
4ccc
8ccc
48ddd
48ccc
48ddd
48ccc
48ddd
48ccc
=94
8.eee
16ddd
4ccc
=95
16.eee
32ddd
8ccc
16.eee
32ddd
8ccc
=96
8.eee
16ddd
4ccc
=97
4bb
8bb
8bb
=98
4ccc
4r
=99
8.ccc
32bb
64r
64bb
16aa
16gg#
16aa
16bb
=100
4ee
4r
=101
8.cc
32b
64r
64b
16a
16g#
16a
16b
=102
4e
4r
=103
2ee-
=104
4ee
4r
=105
8.cc
32b
64r
64b
16a
16g#
16a
16b
=106
4e
4ee-
=107
4ee
4dd#
=108
4ee
4r
=109
4r
16cc
16b
16cc
16dd
=110
16b
16a#
16b
16cc
16dd
16cc#
16dd
16ee
=111
4.cc
16b
16a
=112
16.g#
32a
16.b
32a
16.cc
32b
16.dd
32cc
=113
4ee
8.ff
16dd
=114
4b
4r
=115
4aa
8.bb-
16gg
=116
4ee
8r
8ee
=117
4ff
8r
8ff
=118
4ee
8r
8ee
=119
4g#
4g#
=120
16a
16g#
16a
16b
16cc
16cc#
16dd
16ee-
=121
2ee[
=122
16ee]
16dd
16ff
16dd
16cc
16b
16dd
16b
=123
2g#
=124
[2a
=125
16a]
16b-
16b
16cc
16cc#
16dd
16ee-
16ee
=126
2ff[
=127
16ff]
16ff
16ee
16ff
16ee
16dd
16cc
16b
=128
4a
4a
=129
4a
8r
8aa
==
*-
